X:6145
T:Snderhoning V
A:Fan
L:1/8
M:2/4
O:Denmark
Q:1/4=92
R:Snderhoning
Z:Richard Robinson 
%%TUNEURL: http://www.leeds.ac.uk/music/Info/RRTuneBk/gettune/00000b34.html
%%ID:00000b34
K:G
D|\
G2 A2| B>A G>D| G>F GB| A3 B|\
c2 B2| A>B AG| F>E FG| A3 B|
d2 B2| dd GG| e>d cB| A3 D|\
G>F GA| Ge dc| B2 A2| G2|]
